X:8
T:Ragged Crow
C:
N:
M:4/4
L:1/8
K:G
"G"G3 A B2 B2 |"D"A2 A2 "G"G>B d2 |"C"e2 e2 "G"d>B G2 |"G"G>FG>B "D"A>F D2|
"G"G3 A B2 B2 |"D"A2 A2 "G"G>B d2 |"C"e2 e2 "G"d>B G>B |"D"A2 F2 "G"G4 ||
"G"d2 d2 "C"e4 |"G"G>F G>A B2 B2 |"C"c>BA>c "G"B>AG2 |"G"G>FG>B "D"A>F D2 |
"G"d2 d2 "C"e4 |"G"G>F G>A B2 B2 |"C"c>BA>c "G"B>AG>B |"D"A2 F2 "G"G4 |]
%End of file
